assets/icons/24px/stroke/close-full-screen-arrow-24px.svg

<svg width="24" height="24" viewBox="0 0 24 24" fill="none" xmlns="http://www.w3.org/2000/svg">
<g clip-path="url(#clip0_878_22581)">
<path fill-rule="evenodd" clip-rule="evenodd" d="M9.00002 21C8.44774 21 8.00002 20.5523 8.00002 20L8.00002 17.4142L3.70712 21.7071C3.3166 22.0976 2.68343 22.0976 2.29291 21.7071C1.90239 21.3166 1.90239 20.6834 2.29291 20.2929L6.5858 16L4.00002 16C3.44774 16 3.00002 15.5523 3.00002 15C3.00002 14.4477 3.44774 14 4.00002 14L9.00002 14C9.26524 14 9.51959 14.1054 9.70713 14.2929C9.89466 14.4804 10 14.7348 10 15L10 20C10 20.5523 9.55231 21 9.00002 21ZM21 8.99993C21 9.55221 20.5523 9.99993 20 9.99992L15 9.99992C14.4477 9.99992 14 9.55221 14 8.99992L14 3.99993C14 3.44764 14.4477 2.99993 15 2.99993C15.5523 2.99993 16 3.44764 16 3.99993L16 6.58574L20.2929 2.29289C20.6835 1.90237 21.3166 1.90237 21.7071 2.2929C22.0977 2.68343 22.0977 3.31659 21.7071 3.70711L17.4143 7.99992L20 7.99993C20.5523 7.99993 21 8.44764 21 8.99993Z" fill="white"/>
</g>
<defs>
<clipPath id="clip0_878_22581">
<rect width="24" height="24" fill="white"/>
</clipPath>
</defs>
</svg>

<svg width="24" height="24" fill="none" xmlns="http://www.w3.org/2000/svg"><g clip-path="url(#clip0_878_22581)"><path fill-rule="evenodd" clip-rule="evenodd" d="M9 21a1 1 0 0 1-1-1v-2.586l-4.293 4.293a1 1 0 0 1-1.414-1.414L6.586 16H4a1 1 0 1 1 0-2h5a1 1 0 0 1 1 1v5a1 1 0 0 1-1 1zM21 9a1 1 0 0 1-1 1h-5a1 1 0 0 1-1-1V4a1 1 0 1 1 2 0v2.586l4.293-4.293a1 1 0 1 1 1.414 1.414L17.414 8H20a1 1 0 0 1 1 1z" fill="#fff"/></g><defs><clipPath id="clip0_878_22581"><path fill="#fff" d="M0 0H24V24H0z"/></clipPath></defs></svg>
